status/48/night-light-disabled-symbolic.svg

<?xml version="1.0" encoding="UTF-8" standalone="no"?>
<svg
   xmlns:dc="http://purl.org/dc/elements/1.1/"
   xmlns:cc="http://creativecommons.org/ns#"
   xmlns:rdf="http://www.w3.org/1999/02/22-rdf-syntax-ns#"
   xmlns:svg="http://www.w3.org/2000/svg"
   xmlns="http://www.w3.org/2000/svg"
   id="svg6"
   version="1.1"
   width="48"
   height="48">
  <metadata
     id="metadata12">
    <rdf:RDF>
      <cc:Work
         rdf:about="">
        <dc:format>image/svg+xml</dc:format>
        <dc:type
           rdf:resource="http://purl.org/dc/dcmitype/StillImage" />
        <dc:title></dc:title>
      </cc:Work>
    </rdf:RDF>
  </metadata>
  <defs
     id="defs10" />
  <path
     id="rect860"
     d="M 23.5,9 C 23.223,9 23,9.223 23,9.5 v 3 c 0,0.277 0.223,0.5 0.5,0.5 h 1 c 0.277,0 0.5,-0.223 0.5,-0.5 v -3 C 25,9.223 24.777,9 24.5,9 Z m -10.814453,2.478516 c -0.12781,0 -0.255581,0.04855 -0.353516,0.146484 L 11.625,12.332031 c -0.195869,0.195869 -0.195869,0.511163 0,0.707031 L 34.960938,36.375 c 0.195868,0.195869 0.511162,0.195869 0.707031,0 L 36.375,35.667969 c 0.195869,-0.195869 0.195869,-0.511163 0,-0.707031 L 31.015625,29.601562 C 32.249513,28.063688 33.000005,26.122755 33,24 c 0,-4.96589 -4.034114,-9 -9,-9 -2.122756,0 -4.063688,0.750489 -5.601562,1.984375 L 13.039062,11.625 c -0.09793,-0.09793 -0.225706,-0.146484 -0.353515,-0.146484 z m 21.214844,1.414062 c -0.12781,0 -0.255582,0.04855 -0.353516,0.146484 l -2.123047,2.123047 c -0.195868,0.195869 -0.195868,0.511163 0,0.707032 l 0.707031,0.707031 c 0.195869,0.195868 0.511163,0.195868 0.707032,0 l 2.123047,-2.123047 c 0.195869,-0.195868 0.195869,-0.511163 0,-0.707031 L 34.253906,13.039062 C 34.155972,12.94113 34.0282,12.892578 33.900391,12.892578 Z m -10.0625,3.845703 c 0.0459,-4.34e-4 0.09277,-4.34e-4 0.138671,0 h 0.01172 c -1.175777,0.877672 -1.977569,2.141311 -2.291015,3.544922 L 19.59961,18.185547 c 1.154073,-0.87193 2.597824,-1.41602 4.238281,-1.447266 z m -7.669922,2.84375 C 15.428474,20.888552 15,22.393338 15,24 c 0,4.965892 4.034104,9 9,9 1.60666,0 3.111447,-0.428473 4.417969,-1.167969 L 27.160156,30.574219 C 24.102655,32.042026 20.135454,31.32834 17.955078,28.128906 16.362941,25.792641 16.355243,23.05284 17.429688,20.84375 Z M 9.5,23 C 9.223,23 9,23.223 9,23.5 v 1 C 9,24.777 9.223,25 9.5,25 h 3 c 0.277,0 0.5,-0.223 0.5,-0.5 v -1 C 13,23.223 12.777,23 12.5,23 Z m 26,0 C 35.223,23 35,23.223 35,23.5 v 1 c 0,0.277 0.223,0.5 0.5,0.5 h 3 c 0.277,0 0.5,-0.223 0.5,-0.5 v -1 C 39,23.223 38.777,23 38.5,23 Z m -4.791016,3.818359 c -0.242073,0.583174 -0.55054,1.103642 -0.902343,1.574219 l -0.878907,-0.878906 c 0.623962,-0.13966 1.226916,-0.365842 1.78125,-0.695313 z m -15.193359,4.458985 c -0.12781,0 -0.255581,0.04855 -0.353516,0.146484 l -2.123047,2.123047 c -0.195869,0.195868 -0.195869,0.511163 0,0.707031 l 0.707032,0.707032 c 0.195868,0.195869 0.511163,0.195869 0.707031,0 l 2.123047,-2.123047 c 0.195868,-0.195869 0.195868,-0.511163 0,-0.707032 l -0.707031,-0.707031 c -0.09794,-0.09793 -0.225706,-0.146484 -0.353516,-0.146484 z M 23.5,35 C 23.223,35 23,35.223 23,35.5 v 3 c 0,0.277 0.223,0.5 0.5,0.5 h 1 c 0.277,0 0.5,-0.223 0.5,-0.5 v -3 C 25,35.223 24.777,35 24.5,35 Z"
     style="opacity:0.4;vector-effect:none;fill:#666666;fill-opacity:1;stroke:none;stroke-width:1;stroke-linecap:butt;stroke-linejoin:miter;stroke-miterlimit:4;stroke-dasharray:none;stroke-dashoffset:0;stroke-opacity:1;marker:none;paint-order:normal;font-variant-east_asian:normal" />
</svg>

<?xml version="1.0" encoding="UTF-8" standalone="no"?>
<svg
   id="svg4031"
   height="48"
   width="48"
   version="1.1"
   xmlns="http://www.w3.org/2000/svg"
   xmlns:svg="http://www.w3.org/2000/svg"
   xmlns:rdf="http://www.w3.org/1999/02/22-rdf-syntax-ns#"
   xmlns:cc="http://creativecommons.org/ns#"
   xmlns:dc="http://purl.org/dc/elements/1.1/">
  <defs
     id="defs4033">
    <filter
       style="color-interpolation-filters:sRGB"
       id="filter3174"
       x="-0.047720931"
       y="-0.048282354"
       width="1.0954419"
       height="1.0965647">
      <feGaussianBlur
         stdDeviation="1.71"
         id="feGaussianBlur3176" />
    </filter>
    <filter
       style="color-interpolation-filters:sRGB"
       id="filter3174-4"
       x="-0.047720931"
       y="-0.048282354"
       width="1.0954419"
       height="1.0965647">
      <feGaussianBlur
         stdDeviation="1.71"
         id="feGaussianBlur3176-5" />
    </filter>
  </defs>
  <metadata
     id="metadata4036">
    <rdf:RDF>
      <cc:Work
         rdf:about="">
        <dc:format>image/svg+xml</dc:format>
        <dc:type
           rdf:resource="http://purl.org/dc/dcmitype/StillImage" />
      </cc:Work>
    </rdf:RDF>
  </metadata>
  <path
     id="path2555-7-8-5-0-9-2-7"
     style="color:#000000;display:inline;overflow:visible;visibility:visible;opacity:0.5;vector-effect:none;fill:#555761;fill-opacity:1;fill-rule:nonzero;stroke:none;stroke-width:0.992;stroke-linecap:square;stroke-linejoin:miter;stroke-miterlimit:4;stroke-dasharray:none;stroke-dashoffset:0;stroke-opacity:1;marker:none;enable-background:accumulate;font-variant-east_asian:normal;font-variation-settings:normal;-inkscape-stroke:none;stop-color:#000000;stop-opacity:1"
     d="M 23.5 9 C 23.223 9 23 9.2230003 23 9.5 L 23 12.5 C 23 12.777 23.223 13 23.5 13 L 24.5 13 C 24.777 13 25 12.777 25 12.5 L 25 9.5 C 25 9.2230003 24.777 9 24.5 9 L 23.5 9 z M 14.099609 12.892578 C 13.971801 12.892578 13.844028 12.941129 13.746094 13.039062 L 13.099609 13.685547 L 15.929688 16.515625 L 16.576172 15.869141 C 16.77204 15.673272 16.77204 15.357978 16.576172 15.162109 L 14.453125 13.039062 C 14.355191 12.94113 14.227419 12.892578 14.099609 12.892578 z M 33.900391 12.892578 C 33.772581 12.892578 33.644809 12.941129 33.546875 13.039062 L 31.423828 15.162109 C 31.22796 15.357978 31.22796 15.673272 31.423828 15.869141 L 32.130859 16.576172 C 32.326728 16.77204 32.642022 16.77204 32.837891 16.576172 L 34.960938 14.453125 C 35.156806 14.257257 35.156806 13.941962 34.960938 13.746094 L 34.253906 13.039062 C 34.155972 12.94113 34.028199 12.892578 33.900391 12.892578 z M 24 15 C 21.368076 15 19.005955 16.140815 17.359375 17.945312 L 18.558594 19.144531 C 19.824853 17.725802 21.658335 16.779795 23.837891 16.738281 C 23.883791 16.737847 23.930663 16.737847 23.976562 16.738281 L 23.988281 16.738281 C 22.455173 17.882687 21.549913 19.680617 21.546875 21.59375 C 21.546789 21.785659 21.558838 21.97473 21.576172 22.162109 L 27.056641 27.642578 C 27.242755 27.659774 27.4305 27.671866 27.621094 27.671875 C 28.708137 27.669175 29.77453 27.373756 30.708984 26.818359 C 30.268786 27.878827 29.627943 28.755777 28.861328 29.447266 L 30.054688 30.640625 C 31.859187 28.994045 33.000006 26.631922 33 24 C 33 19.034115 28.965881 15 24 15 z M 16.167969 19.582031 C 15.428474 20.88855 15 22.39334 15 24 C 15 28.965887 19.034109 33 24 33 C 25.606659 33 27.111449 32.571526 28.417969 31.832031 L 27.167969 30.582031 C 24.109885 32.052638 20.136494 31.329866 17.955078 28.128906 C 16.36257 25.792097 16.350576 23.049198 17.425781 20.839844 L 16.167969 19.582031 z M 9.5 23 C 9.2230003 23 9 23.223 9 23.5 L 9 24.5 C 9 24.777 9.2230003 25 9.5 25 L 12.5 25 C 12.777 25 13 24.777 13 24.5 L 13 23.5 C 13 23.223 12.777 23 12.5 23 L 9.5 23 z M 35.5 23 C 35.223 23 35 23.223 35 23.5 L 35 24.5 C 35 24.777 35.223 25 35.5 25 L 38.5 25 C 38.777 25 39 24.777 39 24.5 L 39 23.5 C 39 23.223 38.777 23 38.5 23 L 35.5 23 z M 15.515625 31.277344 C 15.387815 31.277344 15.260044 31.325894 15.162109 31.423828 L 13.039062 33.546875 C 12.843194 33.742743 12.843194 34.058038 13.039062 34.253906 L 13.746094 34.960938 C 13.941962 35.156806 14.257257 35.156806 14.453125 34.960938 L 16.576172 32.837891 C 16.77204 32.642022 16.77204 32.326728 16.576172 32.130859 L 15.869141 31.423828 C 15.771206 31.325894 15.643435 31.277344 15.515625 31.277344 z M 32.484375 31.277344 C 32.356566 31.277344 32.228794 31.325894 32.130859 31.423828 L 31.484375 32.070312 L 34.314453 34.900391 L 34.960938 34.253906 C 35.156806 34.058038 35.156806 33.742743 34.960938 33.546875 L 32.837891 31.423828 C 32.739956 31.325894 32.612184 31.277344 32.484375 31.277344 z M 23.5 35 C 23.223 35 23 35.223 23 35.5 L 23 38.5 C 23 38.777 23.223 39 23.5 39 L 24.5 39 C 24.777 39 25 38.777 25 38.5 L 25 35.5 C 25 35.223 24.777 35 24.5 35 L 23.5 35 z " />
  <rect
     width="86"
     height="85"
     rx="6"
     ry="6"
     x="881.27277"
     y="-22.04542"
     id="rect3745"
     style="opacity:0.9;fill:#ffb380;fill-opacity:1;fill-rule:nonzero;stroke:none;filter:url(#filter3174)" />
  <rect
     width="86"
     height="85"
     rx="6"
     ry="6"
     x="878.00006"
     y="-22.40906"
     id="rect3745-5"
     style="opacity:0.9;fill:#ffb380;fill-opacity:1;fill-rule:nonzero;stroke:none;filter:url(#filter3174-4)" />
  <path
     id="path2"
     d="m 13.039062,11.625 c -0.195868,-0.195869 -0.511162,-0.195869 -0.707031,0 L 11.625,12.332031 c -0.195869,0.195869 -0.195869,0.511163 0,0.707031 L 34.960938,36.375 c 0.195868,0.195869 0.511162,0.195869 0.707031,0 L 36.375,35.667969 c 0.195869,-0.195869 0.195869,-0.511163 0,-0.707031 z"
     style="font-variation-settings:normal;vector-effect:none;fill:#555761;fill-opacity:1;stroke:none;stroke-width:0.992;stroke-linecap:square;stroke-linejoin:miter;stroke-miterlimit:4;stroke-dasharray:none;stroke-dashoffset:0;stroke-opacity:1;-inkscape-stroke:none;marker:none;stop-color:#000000" />
</svg>
